icon-themes/breeze_svg/cmd/sc_fontworkshapetype.fontwork-circle-curve.svg

<svg viewBox="0 0 16 16" xmlns="http://www.w3.org/2000/svg">/&gt;<path d="m8 2c-3.03365 0-5.53237 2.17486-6 5.03125l1.96875.65625c.16318-2.06189 1.89475-3.6875 4.03125-3.6875s3.86806 1.62561 4.03125 3.6875l1.96875-.65625c-.46763-2.85639-2.96634-5.03125-6-5.03125zm-4.03125 6.3125-1.96875.65625c.46763 2.85639 2.96635 5.03125 6 5.03125 3.03366 0 5.53237-2.17486 6-5.03125l-1.96875-.65625c-.16319 2.06189-1.89475 3.6875-4.03125 3.6875s-3.86807-1.62561-4.03125-3.6875z" fill="#4d4d4d"/></svg>

<svg xmlns="http://www.w3.org/2000/svg" viewBox="0 0 16 16">
     />
 <path 
     style="fill:#4d4d4d" 
     d="M 8 2 C 4.96635 2 2.46763 4.17486 2 7.03125 L 3.96875 7.6875 C 4.13193 5.62561 5.8635 4 8 4 C 10.1365 4 11.86806 5.62561 12.03125 7.6875 L 14 7.03125 C 13.53237 4.17486 11.03366 2 8 2 z M 3.96875 8.3125 L 2 8.96875 C 2.46763 11.82514 4.96635 14 8 14 C 11.03366 14 13.53237 11.82514 14 8.96875 L 12.03125 8.3125 C 11.86806 10.37439 10.1365 12 8 12 C 5.8635 12 4.13193 10.37439 3.96875 8.3125 z "
     />
 </svg>
